src/pos-icons/pause-octagon-outline.svg

<svg height="24" viewBox="0 0 24 24" width="24" xmlns="http://www.w3.org/2000/svg"><path d="m15 16h-2v-8h2zm-4 0h-2v-8h2zm4.73-13 5.27 5.27v7.46l-5.27 5.27h-7.46l-5.27-5.27v-7.46l5.27-5.27zm-.83 2h-5.8l-4.1 4.1v5.8l4.1 4.1h5.8l4.1-4.1v-5.8z"/></svg>

<?xml version="1.0" encoding="UTF-8"?><!DOCTYPE svg PUBLIC "-//W3C//DTD SVG 1.1//EN" "http://www.w3.org/Graphics/SVG/1.1/DTD/svg11.dtd"><svg xmlns="http://www.w3.org/2000/svg" xmlns:xlink="http://www.w3.org/1999/xlink" version="1.1" id="mdi-pause-octagon-outline" width="24" height="24" viewBox="0 0 24 24"><path d="M15,16H13V8H15V16M11,16H9V8H11V16M15.73,3L21,8.27V15.73L15.73,21H8.27L3,15.73V8.27L8.27,3H15.73M14.9,5H9.1L5,9.1V14.9L9.1,19H14.9L19,14.9V9.1L14.9,5Z" /></svg>
